;FLAVOR:Marlin
;TIME:6
;Layer height: 2
;MINX:10
;MINY:0
;MINZ:2
;MAXX:240
;MAXY:230
;MAXZ:2
T1
M140 S70
M105
M190 S70
M105
M82 ;absolute extrusion mode
G21 ;metric values
M107
G28
M420 S1
G90 ;absolute positioning
G92 E0; reset extruder distance
G1 X0 Y0 Z10 F5000 ;move nozzle up 10mm for safe homing
M500
M82 ;set extruder to absolute mode
M107 ;start with the fan off
G92 E0 ;zero the extruded length
M117 Printing...
G92 E0
G92 E0
;LAYER_COUNT:1
;LAYER:0
M107




;Coordinate data for diamond frame
;Layer1 Z2
G0 F3600 X20 Y50 Z2
G1 F420 X50 Y50 E0.5
G1 F420 X84.15 Y50 E1.0692
G1 F420 X118.3 Y50 E1.6383
G1 F420 X152.45 Y50 E2.2075
G1 F420 X186.6 Y50 E2.7767
G1 F420 X220.75 Y50 E3.3458
G0 F3600 X220.75 Y84.15
G1 F420 X186.6 Y84.15 E3.915
G1 F420 X152.45 Y84.15 E4.4842
G1 F420 X118.3 Y84.15 E5.0533
G1 F420 X84.15 Y84.15 E5.6225
G1 F420 X50 Y84.15 E6.1917
G0 F3600 X50 Y118.3
G1 F420 X84.15 Y118.3 E6.7608
G1 F420 X118.3 Y118.3 E7.33
G1 F420 X152.45 Y118.3 E7.8992
G1 F420 X186.6 Y118.3 E8.4683
G1 F420 X220.75 Y118.3 E9.0375
G0 F3600 X220.75 Y152.45
G1 F420 X186.6 Y152.45 E9.6067
G1 F420 X152.45 Y152.45 E10.1758
G1 F420 X118.3 Y152.45 E10.745
G1 F420 X84.15 Y152.45 E11.3142
G1 F420 X50 Y152.45 E11.8833
G0 F3600 X50 Y186.6
G1 F420 X84.15 Y186.6 E12.4525
G1 F420 X118.3 Y186.6 E13.0217
G1 F420 X152.45 Y186.6 E13.5908
G1 F420 X186.6 Y186.6 E14.16
G1 F420 X220.75 Y186.6 E14.7292
G0 F3600 X220.75 Y220.75
G1 F420 X186.6 Y220.75 E15.2983
G1 F420 X152.45 Y220.75 E15.8675
G1 F420 X118.3 Y220.75 E16.4367
G1 F420 X84.15 Y220.75 E17.0058
G1 F420 X50 Y220.75 E17.575
G1 F420 X50 Y186.6 E18.1442
G1 F420 X50 Y152.45 E18.7133
G1 F420 X50 Y118.3 E19.2825
G1 F420 X50 Y84.15 E19.8517
G1 F420 X50 Y50 E20.4208
G0 F3600 X84.15 Y50
G1 F420 X84.15 Y84.15 E20.99
G1 F420 X84.15 Y118.3 E21.5592
G1 F420 X84.15 Y152.45 E22.1283
G1 F420 X84.15 Y186.6 E22.6975
G1 F420 X84.15 Y220.75 E23.2667
G0 F3600 X118.3 Y220.75
G1 F420 X118.3 Y186.6 E23.8358
G1 F420 X118.3 Y152.45 E24.405
G1 F420 X118.3 Y118.3 E24.9742
G1 F420 X118.3 Y84.15 E25.5433
G1 F420 X118.3 Y50 E26.1125
G0 F3600 X152.45 Y50
G1 F420 X152.45 Y84.15 E26.6817
G1 F420 X152.45 Y118.3 E27.2508
G1 F420 X152.45 Y152.45 E27.82
G1 F420 X152.45 Y186.6 E28.3892
G1 F420 X152.45 Y220.75 E28.9583
G0 F3600 X186.6 Y220.75
G1 F420 X186.6 Y186.6 E29.5275
G1 F420 X186.6 Y152.45 E30.0967
G1 F420 X186.6 Y118.3 E30.6658
G1 F420 X186.6 Y84.15 E31.235
G1 F420 X186.6 Y50 E31.8042
G0 F3600 X220.75 Y50
G1 F420 X220.75 Y84.15 E32.3733
G1 F420 X220.75 Y118.3 E32.9425
G1 F420 X220.75 Y152.45 E33.5117
G1 F420 X220.75 Y186.6 E34.0808
G1 F420 X220.75 Y220.75 E34.65
G0 F3600 X220.75 Y220.75
G1 F420 X203.675 Y203.675 E35.0525
G1 F420 X186.6 Y220.75 E35.4549
G1 F420 X169.525 Y203.675 E35.8574
G1 F420 X152.45 Y220.75 E36.2598
G1 F420 X135.375 Y203.675 E36.6623
G1 F420 X118.3 Y220.75 E37.0648
G1 F420 X101.225 Y203.675 E37.4672
G1 F420 X84.15 Y220.75 E37.8697
G1 F420 X67.075 Y203.675 E38.2722
G1 F420 X50 Y220.75 E38.6746
G0 F3600 X50 Y186.6
G1 F420 X67.075 Y203.675 E39.0771
G1 F420 X84.15 Y186.6 E39.4795
G1 F420 X101.225 Y203.675 E39.882
G1 F420 X118.3 Y186.6 E40.2845
G1 F420 X135.375 Y203.675 E40.6869
G1 F420 X152.45 Y186.6 E41.0894
G1 F420 X169.525 Y203.675 E41.4918
G1 F420 X186.6 Y186.6 E41.8943
G1 F420 X203.675 Y203.675 E42.2968
G1 F420 X220.75 Y186.6 E42.6992
G1 F420 X203.675 Y169.525 E43.1017
G1 F420 X186.6 Y186.6 E43.5042
G1 F420 X169.525 Y169.525 E43.9066
G1 F420 X152.45 Y186.6 E44.3091
G1 F420 X135.375 Y169.525 E44.7115
G1 F420 X118.3 Y186.6 E45.114
G1 F420 X101.225 Y169.525 E45.5165
G1 F420 X84.15 Y186.6 E45.9189
G1 F420 X67.075 Y169.525 E46.3214
G1 F420 X50 Y186.6 E46.7238
G0 F3600 X50 Y152.45
G1 F420 X67.075 Y169.525 E47.1263
G1 F420 X84.15 Y152.45 E47.5288
G1 F420 X101.225 Y169.525 E47.9312
G1 F420 X118.3 Y152.45 E48.3337
G1 F420 X135.375 Y169.525 E48.7362
G1 F420 X152.45 Y152.45 E49.1386
G1 F420 X169.525 Y169.525 E49.5411
G1 F420 X186.6 Y152.45 E49.9435
G1 F420 X203.675 Y169.525 E50.346
G1 F420 X220.75 Y152.45 E50.7485
G1 F420 X203.675 Y135.375 E51.1509
G1 F420 X186.6 Y152.45 E51.5534
G1 F420 X169.525 Y135.375 E51.9558
G1 F420 X152.45 Y152.45 E52.3583
G1 F420 X135.375 Y135.375 E52.7608
G1 F420 X118.3 Y152.45 E53.1632
G1 F420 X101.225 Y135.375 E53.5657
G1 F420 X84.15 Y152.45 E53.9682
G1 F420 X67.075 Y135.375 E54.3706
G1 F420 X50 Y152.45 E54.7731
G0 F3600 X50 Y118.3
G1 F420 X67.075 Y135.375 E55.1755
G1 F420 X84.15 Y118.3 E55.578
G1 F420 X101.225 Y135.375 E55.9805
G1 F420 X118.3 Y118.3 E56.3829
G1 F420 X135.375 Y135.375 E56.7854
G1 F420 X152.45 Y118.3 E57.1879
G1 F420 X169.525 Y135.375 E57.5903
G1 F420 X186.6 Y118.3 E57.9928
G1 F420 X203.675 Y135.375 E58.3952
G1 F420 X220.75 Y118.3 E58.7977
G1 F420 X203.675 Y101.225 E59.2002
G1 F420 X186.6 Y118.3 E59.6026
G1 F420 X169.525 Y101.225 E60.0051
G1 F420 X152.45 Y118.3 E60.4075
G1 F420 X135.375 Y101.225 E60.81
G1 F420 X118.3 Y118.3 E61.2125
G1 F420 X101.225 Y101.225 E61.6149
G1 F420 X84.15 Y118.3 E62.0174
G1 F420 X67.075 Y101.225 E62.4199
G1 F420 X50 Y118.3 E62.8223
G0 F3600 X50 Y84.15
G1 F420 X67.075 Y101.225 E63.2248
G1 F420 X84.15 Y84.15 E63.6272
G1 F420 X101.225 Y101.225 E64.0297
G1 F420 X118.3 Y84.15 E64.4322
G1 F420 X135.375 Y101.225 E64.8346
G1 F420 X152.45 Y84.15 E65.2371
G1 F420 X169.525 Y101.225 E65.6395
G1 F420 X186.6 Y84.15 E66.042
G1 F420 X203.675 Y101.225 E66.4445
G1 F420 X220.75 Y84.15 E66.8469
G1 F420 X203.675 Y67.075 E67.2494
G1 F420 X186.6 Y84.15 E67.6519
G1 F420 X169.525 Y67.075 E68.0543
G1 F420 X152.45 Y84.15 E68.4568
G1 F420 X135.375 Y67.075 E68.8592
G1 F420 X118.3 Y84.15 E69.2617
G1 F420 X101.225 Y67.075 E69.6642
G1 F420 X84.15 Y84.15 E70.0666
G1 F420 X67.075 Y67.075 E70.4691
G1 F420 X50 Y84.15 E70.8715
G0 F3600 X50 Y50
G1 F420 X67.075 Y67.075 E71.274
G1 F420 X84.15 Y50 E71.6765
G1 F420 X101.225 Y67.075 E72.0789
G1 F420 X118.3 Y50 E72.4814
G1 F420 X135.375 Y67.075 E72.8839
G1 F420 X152.45 Y50 E73.2863
G1 F420 X169.525 Y67.075 E73.6888
G1 F420 X186.6 Y50 E74.0912
G1 F420 X203.675 Y67.075 E74.4937
G1 F420 X220.75 Y50 E74.8962




;Interlayer time gap
G0 F3600 X50 Y50 Z4
G91
G1 Z200
G4 S300
G1 Z-200
G90




;Layer2 Z4
G0 F3600 X20 Y50 Z4
G1 F420 X50 Y50 E75.3962
G1 F420 X84.15 Y50 E75.9653
G1 F420 X118.3 Y50 E76.5345
G1 F420 X152.45 Y50 E77.1037
G1 F420 X186.6 Y50 E77.6728
G1 F420 X220.75 Y50 E78.242
G0 F3600 X220.75 Y84.15
G1 F420 X186.6 Y84.15 E78.8112
G1 F420 X152.45 Y84.15 E79.3803
G1 F420 X118.3 Y84.15 E79.9495
G1 F420 X84.15 Y84.15 E80.5187
G1 F420 X50 Y84.15 E81.0878
G0 F3600 X50 Y118.3
G1 F420 X84.15 Y118.3 E81.657
G1 F420 X118.3 Y118.3 E82.2262
G1 F420 X152.45 Y118.3 E82.7953
G1 F420 X186.6 Y118.3 E83.3645
G1 F420 X220.75 Y118.3 E83.9337
G0 F3600 X220.75 Y152.45
G1 F420 X186.6 Y152.45 E84.5028
G1 F420 X152.45 Y152.45 E85.072
G1 F420 X118.3 Y152.45 E85.6412
G1 F420 X84.15 Y152.45 E86.2103
G1 F420 X50 Y152.45 E86.7795
G0 F3600 X50 Y186.6
G1 F420 X84.15 Y186.6 E87.3487
G1 F420 X118.3 Y186.6 E87.9178
G1 F420 X152.45 Y186.6 E88.487
G1 F420 X186.6 Y186.6 E89.0562
G1 F420 X220.75 Y186.6 E89.6253
G0 F3600 X220.75 Y220.75
G1 F420 X186.6 Y220.75 E90.1945
G1 F420 X152.45 Y220.75 E90.7637
G1 F420 X118.3 Y220.75 E91.3328
G1 F420 X84.15 Y220.75 E91.902
G1 F420 X50 Y220.75 E92.4712
G1 F420 X50 Y186.6 E93.0403
G1 F420 X50 Y152.45 E93.6095
G1 F420 X50 Y118.3 E94.1787
G1 F420 X50 Y84.15 E94.7478
G1 F420 X50 Y50 E95.317
G0 F3600 X84.15 Y50
G1 F420 X84.15 Y84.15 E95.8862
G1 F420 X84.15 Y118.3 E96.4553
G1 F420 X84.15 Y152.45 E97.0245
G1 F420 X84.15 Y186.6 E97.5937
G1 F420 X84.15 Y220.75 E98.1628
G0 F3600 X118.3 Y220.75
G1 F420 X118.3 Y186.6 E98.732
G1 F420 X118.3 Y152.45 E99.3012
G1 F420 X118.3 Y118.3 E99.8703
G1 F420 X118.3 Y84.15 E100.4395
G1 F420 X118.3 Y50 E101.0087
G0 F3600 X152.45 Y50
G1 F420 X152.45 Y84.15 E101.5778
G1 F420 X152.45 Y118.3 E102.147
G1 F420 X152.45 Y152.45 E102.7162
G1 F420 X152.45 Y186.6 E103.2853
G1 F420 X152.45 Y220.75 E103.8545
G0 F3600 X186.6 Y220.75
G1 F420 X186.6 Y186.6 E104.4237
G1 F420 X186.6 Y152.45 E104.9928
G1 F420 X186.6 Y118.3 E105.562
G1 F420 X186.6 Y84.15 E106.1312
G1 F420 X186.6 Y50 E106.7003
G0 F3600 X220.75 Y50
G1 F420 X220.75 Y84.15 E107.2695
G1 F420 X220.75 Y118.3 E107.8387
G1 F420 X220.75 Y152.45 E108.4078
G1 F420 X220.75 Y186.6 E108.977
G1 F420 X220.75 Y220.75 E109.5462
G0 F3600 X220.75 Y220.75
G1 F420 X203.675 Y203.675 E109.9486
G1 F420 X186.6 Y220.75 E110.3511
G1 F420 X169.525 Y203.675 E110.7535
G1 F420 X152.45 Y220.75 E111.156
G1 F420 X135.375 Y203.675 E111.5585
G1 F420 X118.3 Y220.75 E111.9609
G1 F420 X101.225 Y203.675 E112.3634
G1 F420 X84.15 Y220.75 E112.7659
G1 F420 X67.075 Y203.675 E113.1683
G1 F420 X50 Y220.75 E113.5708
G0 F3600 X50 Y186.6
G1 F420 X67.075 Y203.675 E113.9732
G1 F420 X84.15 Y186.6 E114.3757
G1 F420 X101.225 Y203.675 E114.7782
G1 F420 X118.3 Y186.6 E115.1806
G1 F420 X135.375 Y203.675 E115.5831
G1 F420 X152.45 Y186.6 E115.9855
G1 F420 X169.525 Y203.675 E116.388
G1 F420 X186.6 Y186.6 E116.7905
G1 F420 X203.675 Y203.675 E117.1929
G1 F420 X220.75 Y186.6 E117.5954
G1 F420 X203.675 Y169.525 E117.9979
G1 F420 X186.6 Y186.6 E118.4003
G1 F420 X169.525 Y169.525 E118.8028
G1 F420 X152.45 Y186.6 E119.2052
G1 F420 X135.375 Y169.525 E119.6077
G1 F420 X118.3 Y186.6 E120.0102
G1 F420 X101.225 Y169.525 E120.4126
G1 F420 X84.15 Y186.6 E120.8151
G1 F420 X67.075 Y169.525 E121.2175
G1 F420 X50 Y186.6 E121.62
G0 F3600 X50 Y152.45
G1 F420 X67.075 Y169.525 E122.0225
G1 F420 X84.15 Y152.45 E122.4249
G1 F420 X101.225 Y169.525 E122.8274
G1 F420 X118.3 Y152.45 E123.2299
G1 F420 X135.375 Y169.525 E123.6323
G1 F420 X152.45 Y152.45 E124.0348
G1 F420 X169.525 Y169.525 E124.4372
G1 F420 X186.6 Y152.45 E124.8397
G1 F420 X203.675 Y169.525 E125.2422
G1 F420 X220.75 Y152.45 E125.6446
G1 F420 X203.675 Y135.375 E126.0471
G1 F420 X186.6 Y152.45 E126.4495
G1 F420 X169.525 Y135.375 E126.852
G1 F420 X152.45 Y152.45 E127.2545
G1 F420 X135.375 Y135.375 E127.6569
G1 F420 X118.3 Y152.45 E128.0594
G1 F420 X101.225 Y135.375 E128.4619
G1 F420 X84.15 Y152.45 E128.8643
G1 F420 X67.075 Y135.375 E129.2668
G1 F420 X50 Y152.45 E129.6692
G0 F3600 X50 Y118.3
G1 F420 X67.075 Y135.375 E130.0717
G1 F420 X84.15 Y118.3 E130.4742
G1 F420 X101.225 Y135.375 E130.8766
G1 F420 X118.3 Y118.3 E131.2791
G1 F420 X135.375 Y135.375 E131.6815
G1 F420 X152.45 Y118.3 E132.084
G1 F420 X169.525 Y135.375 E132.4865
G1 F420 X186.6 Y118.3 E132.8889
G1 F420 X203.675 Y135.375 E133.2914
G1 F420 X220.75 Y118.3 E133.6939
G1 F420 X203.675 Y101.225 E134.0963
G1 F420 X186.6 Y118.3 E134.4988
G1 F420 X169.525 Y101.225 E134.9012
G1 F420 X152.45 Y118.3 E135.3037
G1 F420 X135.375 Y101.225 E135.7062
G1 F420 X118.3 Y118.3 E136.1086
G1 F420 X101.225 Y101.225 E136.5111
G1 F420 X84.15 Y118.3 E136.9136
G1 F420 X67.075 Y101.225 E137.316
G1 F420 X50 Y118.3 E137.7185
G0 F3600 X50 Y84.15
G1 F420 X67.075 Y101.225 E138.1209
G1 F420 X84.15 Y84.15 E138.5234
G1 F420 X101.225 Y101.225 E138.9259
G1 F420 X118.3 Y84.15 E139.3283
G1 F420 X135.375 Y101.225 E139.7308
G1 F420 X152.45 Y84.15 E140.1332
G1 F420 X169.525 Y101.225 E140.5357
G1 F420 X186.6 Y84.15 E140.9382
G1 F420 X203.675 Y101.225 E141.3406
G1 F420 X220.75 Y84.15 E141.7431
G1 F420 X203.675 Y67.075 E142.1456
G1 F420 X186.6 Y84.15 E142.548
G1 F420 X169.525 Y67.075 E142.9505
G1 F420 X152.45 Y84.15 E143.3529
G1 F420 X135.375 Y67.075 E143.7554
G1 F420 X118.3 Y84.15 E144.1579
G1 F420 X101.225 Y67.075 E144.5603
G1 F420 X84.15 Y84.15 E144.9628
G1 F420 X67.075 Y67.075 E145.3652
G1 F420 X50 Y84.15 E145.7677
G0 F3600 X50 Y50
G1 F420 X67.075 Y67.075 E146.1702
G1 F420 X84.15 Y50 E146.5726
G1 F420 X101.225 Y67.075 E146.9751
G1 F420 X118.3 Y50 E147.3776
G1 F420 X135.375 Y67.075 E147.78
G1 F420 X152.45 Y50 E148.1825
G1 F420 X169.525 Y67.075 E148.5849
G1 F420 X186.6 Y50 E148.9874
G1 F420 X203.675 Y67.075 E149.3899
G1 F420 X220.75 Y50 E149.7923




;Interlayer time gap
G0 F3600 X50 Y50 Z6
G91
G1 Z200
G4 S300
G1 Z-200
G90




;Layer3 Z6
G0 F3600 X20 Y50 Z6
G1 F420 X50 Y50 E150.2923
G1 F420 X84.15 Y50 E150.8615
G1 F420 X118.3 Y50 E151.4307
G1 F420 X152.45 Y50 E151.9998
G1 F420 X186.6 Y50 E152.569
G1 F420 X220.75 Y50 E153.1382
G0 F3600 X220.75 Y84.15
G1 F420 X186.6 Y84.15 E153.7073
G1 F420 X152.45 Y84.15 E154.2765
G1 F420 X118.3 Y84.15 E154.8457
G1 F420 X84.15 Y84.15 E155.4148
G1 F420 X50 Y84.15 E155.984
G0 F3600 X50 Y118.3
G1 F420 X84.15 Y118.3 E156.5532
G1 F420 X118.3 Y118.3 E157.1223
G1 F420 X152.45 Y118.3 E157.6915
G1 F420 X186.6 Y118.3 E158.2607
G1 F420 X220.75 Y118.3 E158.8298
G0 F3600 X220.75 Y152.45
G1 F420 X186.6 Y152.45 E159.399
G1 F420 X152.45 Y152.45 E159.9682
G1 F420 X118.3 Y152.45 E160.5373
G1 F420 X84.15 Y152.45 E161.1065
G1 F420 X50 Y152.45 E161.6757
G0 F3600 X50 Y186.6
G1 F420 X84.15 Y186.6 E162.2448
G1 F420 X118.3 Y186.6 E162.814
G1 F420 X152.45 Y186.6 E163.3832
G1 F420 X186.6 Y186.6 E163.9523
G1 F420 X220.75 Y186.6 E164.5215
G0 F3600 X220.75 Y220.75
G1 F420 X186.6 Y220.75 E165.0907
G1 F420 X152.45 Y220.75 E165.6598
G1 F420 X118.3 Y220.75 E166.229
G1 F420 X84.15 Y220.75 E166.7982
G1 F420 X50 Y220.75 E167.3673
G1 F420 X50 Y186.6 E167.9365
G1 F420 X50 Y152.45 E168.5057
G1 F420 X50 Y118.3 E169.0748
G1 F420 X50 Y84.15 E169.644
G1 F420 X50 Y50 E170.2132
G0 F3600 X84.15 Y50
G1 F420 X84.15 Y84.15 E170.7823
G1 F420 X84.15 Y118.3 E171.3515
G1 F420 X84.15 Y152.45 E171.9207
G1 F420 X84.15 Y186.6 E172.4898
G1 F420 X84.15 Y220.75 E173.059
G0 F3600 X118.3 Y220.75
G1 F420 X118.3 Y186.6 E173.6282
G1 F420 X118.3 Y152.45 E174.1973
G1 F420 X118.3 Y118.3 E174.7665
G1 F420 X118.3 Y84.15 E175.3357
G1 F420 X118.3 Y50 E175.9048
G0 F3600 X152.45 Y50
G1 F420 X152.45 Y84.15 E176.474
G1 F420 X152.45 Y118.3 E177.0432
G1 F420 X152.45 Y152.45 E177.6123
G1 F420 X152.45 Y186.6 E178.1815
G1 F420 X152.45 Y220.75 E178.7507
G0 F3600 X186.6 Y220.75
G1 F420 X186.6 Y186.6 E179.3198
G1 F420 X186.6 Y152.45 E179.889
G1 F420 X186.6 Y118.3 E180.4582
G1 F420 X186.6 Y84.15 E181.0273
G1 F420 X186.6 Y50 E181.5965
G0 F3600 X220.75 Y50
G1 F420 X220.75 Y84.15 E182.1657
G1 F420 X220.75 Y118.3 E182.7348
G1 F420 X220.75 Y152.45 E183.304
G1 F420 X220.75 Y186.6 E183.8732
G1 F420 X220.75 Y220.75 E184.4423
G0 F3600 X220.75 Y220.75
G1 F420 X203.675 Y203.675 E184.8448
G1 F420 X186.6 Y220.75 E185.2472
G1 F420 X169.525 Y203.675 E185.6497
G1 F420 X152.45 Y220.75 E186.0522
G1 F420 X135.375 Y203.675 E186.4546
G1 F420 X118.3 Y220.75 E186.8571
G1 F420 X101.225 Y203.675 E187.2596
G1 F420 X84.15 Y220.75 E187.662
G1 F420 X67.075 Y203.675 E188.0645
G1 F420 X50 Y220.75 E188.4669
G0 F3600 X50 Y186.6
G1 F420 X67.075 Y203.675 E188.8694
G1 F420 X84.15 Y186.6 E189.2719
G1 F420 X101.225 Y203.675 E189.6743
G1 F420 X118.3 Y186.6 E190.0768
G1 F420 X135.375 Y203.675 E190.4792
G1 F420 X152.45 Y186.6 E190.8817
G1 F420 X169.525 Y203.675 E191.2842
G1 F420 X186.6 Y186.6 E191.6866
G1 F420 X203.675 Y203.675 E192.0891
G1 F420 X220.75 Y186.6 E192.4916
G1 F420 X203.675 Y169.525 E192.894
G1 F420 X186.6 Y186.6 E193.2965
G1 F420 X169.525 Y169.525 E193.6989
G1 F420 X152.45 Y186.6 E194.1014
G1 F420 X135.375 Y169.525 E194.5039
G1 F420 X118.3 Y186.6 E194.9063
G1 F420 X101.225 Y169.525 E195.3088
G1 F420 X84.15 Y186.6 E195.7112
G1 F420 X67.075 Y169.525 E196.1137
G1 F420 X50 Y186.6 E196.5162
G0 F3600 X50 Y152.45
G1 F420 X67.075 Y169.525 E196.9186
G1 F420 X84.15 Y152.45 E197.3211
G1 F420 X101.225 Y169.525 E197.7236
G1 F420 X118.3 Y152.45 E198.126
G1 F420 X135.375 Y169.525 E198.5285
G1 F420 X152.45 Y152.45 E198.9309
G1 F420 X169.525 Y169.525 E199.3334
G1 F420 X186.6 Y152.45 E199.7359
G1 F420 X203.675 Y169.525 E200.1383
G1 F420 X220.75 Y152.45 E200.5408
G1 F420 X203.675 Y135.375 E200.9432
